X:1
T:Title
%%score { ( 1 3 ) | ( 2 4 ) }
L:1/8
Q:1/4=112
M:2/2
K:F
V:1 treble nm="Grand Piano"
V:3 treble 
V:2 treble 
V:4 treble 
V:1
 c2 c2 cdcB | A2 A2 A4 | F2 F2 F3 G |[M:9/8] [FA]2 [EG]- [EG] [EG]2 [Ec]3 |[M:4/4] c2 c2 cdcB | %5
 A2 A2 A4 | [A,F]2 [A,F]2 [CFA]3 [B,EG] | [F,A,CF]6 z2 | A8 | [EG]6 [FA]2 | %10
 [EB]2 [EB]2 [EB]3 [EG] | A2 c2 c4 | c8 | [Ec]6 [GB]2 | [FA]2 [FA]2 [B,EG]3 [B,CG] | [F,A,CF]6 z2 | %16
 A8 | [EG]6 [FA]2 | [EB]2 [EB]2 [EB]3 [EG] | A2 c2 c4 | c8 | [Ec]6 [GB]2 | [FA]2 [FA]2 [EG]3 [CG] | %23
 [A,CF]6 z2 |] %24
V:2
 A2 A2 ABAG | F2 F2 F4 | [F,A,C]2 [F,A,C]2 [F,A,C]3 [F,B,C] | %3
[M:9/8] [C,C]2 [C,C]- [C,C] [C,C]2 [C,G,]3 |[M:4/4][K:treble] A2 A2 ABAG | F2 F2 F4 | %6
 D,2 D,2 C,3 C, | F,,6 z2 | F8 | [C,C]6 [C,C]2 | [C,G,]2 [C,G,]2 [C,G,]3 [C,C] | %11
 [F,CF]2 [F,A,F]2 [F,A,F]4 | z2 [A,C]2 A,2 [F,A,]2 | [C,G,]6 [C,C]2 | [C,C]2 [C,C]2 C,3 C, | %15
 F,,6 z2 | F8 | [C,C]6 [C,C]2 | [C,G,]2 [C,G,]2 [C,G,]3 [C,C] | [F,CF]2 [F,A,F]2 [F,A,F]4 | %20
 z2 [A,C]2 A,2 [F,A,]2 | [C,G,]6 [C,C]2 | [C,C]2 [C,C]2 [C,B,]3 [C,B,] | [F,,F,]6 z2 |] %24
V:3
 x8 | x8 | x8 |[M:9/8] x9 |[M:4/4] x8 | x8 | x8 | x8 | z2 C2 C2 C2 | x8 | x8 | x8 | z2 F2 F2 F2 | %13
 x8 | x8 | x8 | z2 C2 C2 C2 | x8 | x8 | x8 | z2 F2 F2 F2 | x8 | x8 | x8 |] %24
V:4
 x8 | x8 | x8 |[M:9/8] x9 |[M:4/4][K:treble] x8 | x8 | x8 | x8 | z2 A,,2 C,2 F,2 | x8 | x8 | x8 | %12
 x8 | x8 | x8 | x8 | z2 A,,2 C,2 F,2 | x8 | x8 | x8 | x8 | x8 | x8 | x8 |] %24

